austria/municipalities/20643.svg

<?xml version="1.0" encoding="UTF-8" standalone="no"?>
<!-- Created with Inkscape (http://www.inkscape.org/) -->
<svg
   xmlns:dc="http://purl.org/dc/elements/1.1/"
   xmlns:cc="http://web.resource.org/cc/"
   xmlns:rdf="http://www.w3.org/1999/02/22-rdf-syntax-ns#"
   xmlns:svg="http://www.w3.org/2000/svg"
   xmlns="http://www.w3.org/2000/svg"
   xmlns:sodipodi="http://inkscape.sourceforge.net/DTD/sodipodi-0.dtd"
   xmlns:inkscape="http://www.inkscape.org/namespaces/inkscape"
   width="690.09003"
   height="780.35999"
   id="svg1332"
   sodipodi:version="0.32"
   inkscape:version="0.43"
   sodipodi:docname="wappen_lurnfeld.svg"
   version="1.0"
   sodipodi:docbase="D:\grafik\wappen">
  <defs
     id="defs3" />
  <sodipodi:namedview
     inkscape:document-units="mm"
     id="base"
     pagecolor="#ffffff"
     bordercolor="#666666"
     borderopacity="1.0"
     inkscape:pageopacity="0.0"
     inkscape:pageshadow="2"
     inkscape:zoom="0.70710678"
     inkscape:cx="424.89476"
     inkscape:cy="452.94956"
     inkscape:current-layer="layer1"
     inkscape:window-width="1280"
     inkscape:window-height="785"
     inkscape:window-x="-4"
     inkscape:window-y="-4"
     showgrid="false"
     showguides="true"
     inkscape:guide-bbox="true" />
  <metadata
     id="metadata4">
    <rdf:RDF>
      <cc:Work
         rdf:about="">
        <dc:format>image/svg+xml</dc:format>
        <dc:type
           rdf:resource="http://purl.org/dc/dcmitype/StillImage" />
        <dc:title>Wappen Gemeinde Lurnfeld</dc:title>
        <dc:date>05. Feb 2006</dc:date>
        <dc:creator>
          <cc:Agent>
            <dc:title>Michael Glanznig</dc:title>
          </cc:Agent>
        </dc:creator>
        <dc:rights>
          <cc:Agent>
            <dc:title />
          </cc:Agent>
        </dc:rights>
        <dc:description>Lurnfeld, coat of arms</dc:description>
        <cc:license
           rdf:resource="http://creativecommons.org/licenses/by-sa/2.0/" />
      </cc:Work>
      <cc:License
         rdf:about="http://creativecommons.org/licenses/by-sa/2.0/at/">
        <cc:permits
           rdf:resource="http://web.resource.org/cc/Reproduction" />
        <cc:permits
           rdf:resource="http://web.resource.org/cc/Distribution" />
        <cc:requires
           rdf:resource="http://web.resource.org/cc/Notice" />
        <cc:requires
           rdf:resource="http://web.resource.org/cc/Attribution" />
        <cc:permits
           rdf:resource="http://web.resource.org/cc/DerivativeWorks" />
        <cc:requires
           rdf:resource="http://web.resource.org/cc/ShareAlike" />
      </cc:License>
    </rdf:RDF>
  </metadata>
  <g
     inkscape:label="Layer 1"
     inkscape:groupmode="layer"
     id="layer1">
    <a
       id="a3977" />
    <g
       id="g3173">
      <path
         sodipodi:nodetypes="ccccc"
         id="path1350"
         d="M 17.225331,22.785356 L 670.08245,23.995256 L 619.55665,562.81299 C 582.77565,831.849 92.179889,834.9833 65.218861,562.86804 L 17.225331,22.785356 z "
         style="fill:#0180bf;fill-opacity:1;fill-rule:evenodd;stroke:#000000;stroke-width:12.81259823;stroke-linecap:butt;stroke-linejoin:miter;stroke-miterlimit:4;stroke-dasharray:none;stroke-opacity:1" />
      <path
         sodipodi:nodetypes="cccccccccccc"
         id="path1423"
         d="M 398.63145,757.47 L 398.56863,355.34807 L 655.86667,142.8781 L 667.59459,27.169943 L 602.69762,27.25573 L 336.08283,238.38777 L 89.240115,26.25573 L 20.470563,26.341516 L 31.370058,141.67961 L 274.57495,355.14007 L 274.53421,757.29323 C 309.68794,762.879 362.14442,763.88401 398.63145,757.47 z "
         style="fill:#fdcd09;fill-opacity:1;fill-rule:evenodd;stroke:#000000;stroke-width:6.25;stroke-linecap:butt;stroke-linejoin:miter;stroke-miterlimit:4;stroke-dasharray:none;stroke-opacity:1" />
      <path
         sodipodi:nodetypes="ccccccccccccc"
         id="path2298"
         d="M 64.707107,516.35999 C 253.42256,438.93624 436.2212,450.9531 621.17157,516.35999 L 611.05025,594.35999 C 611.03182,561.0768 511.31133,560.99525 512,594.35999 L 512,716.85999 C 497.30305,726.49823 482.73306,732.8943 466.70291,738.69973 L 466.70291,594.35999 C 464.62325,511.06257 207.37177,514.62925 207.64645,594.35999 L 207.64645,738.35999 C 190.99846,730.16433 175.25837,722.62777 160,712.35999 L 160,594.35999 C 160.44603,555.1505 73.917929,553.93681 72.949747,592.23867 L 64.707107,516.35999 z "
         style="fill:#fdcd09;fill-opacity:1;fill-rule:evenodd;stroke:#000000;stroke-width:6.25;stroke-linecap:butt;stroke-linejoin:miter;stroke-opacity:1;stroke-miterlimit:4;stroke-dasharray:none" />
    </g>
  </g>
</svg>

<svg xmlns="http://www.w3.org/2000/svg" width="690.09" height="780.36" version="1.0"><path d="m17.225 22.785 652.857 1.21-50.525 538.818c-36.781 269.036-527.377 272.17-554.338.055L17.225 22.785z" style="fill:#0180bf;fill-opacity:1;fill-rule:evenodd;stroke:#000;stroke-width:12.81259823;stroke-linecap:butt;stroke-linejoin:miter;stroke-miterlimit:4;stroke-dasharray:none;stroke-opacity:1"/><path d="m398.631 757.47-.062-402.122 257.298-212.47L667.595 27.17l-64.897.086-266.615 211.132L89.24 26.256l-68.77.086 10.9 115.338 243.205 213.46-.04 402.153c35.153 5.586 87.61 6.591 124.096.177z" style="fill:#fdcd09;fill-opacity:1;fill-rule:evenodd;stroke:#000;stroke-width:6.25;stroke-linecap:butt;stroke-linejoin:miter;stroke-miterlimit:4;stroke-dasharray:none;stroke-opacity:1"/><path d="M64.707 516.36c188.716-77.424 371.514-65.407 556.465 0l-10.122 78c-.018-33.283-99.739-33.365-99.05 0v122.5c-14.697 9.638-29.267 16.034-45.297 21.84V594.36c-2.08-83.297-259.331-79.73-259.057 0v144c-16.648-8.196-32.388-15.732-47.646-26v-118c.446-39.21-86.082-40.423-87.05-2.121l-8.243-75.879z" style="fill:#fdcd09;fill-opacity:1;fill-rule:evenodd;stroke:#000;stroke-width:6.25;stroke-linecap:butt;stroke-linejoin:miter;stroke-opacity:1;stroke-miterlimit:4;stroke-dasharray:none"/></svg>
